X:29
T:Talisker
T: From Logie Collection
C: J. Scott Skinner
R: strathspey
M:2/4
L:1/8
Z: Jason R. Fruit <jason@gmail.com>
U: N=!tenuto!
K:A
(A2 NA>)a e<A c>d | e>A {A}a>e f>B B>c | (A2NA>)a e>A c>e | (d/c/B) e>d c>A A :|
a | b>g a>f e<A (c>d) | (e>A {A}a>c) {e}f>B B>a | (b>g a>f) (e<A c>d) | (e>A {A}a>e) c>A A>a |
(b/a/)g {g}a>f e<A c>d | (e>A {A}a>e) {ga}f>B B>c | (A2 NA>)a e<A c>e | (d/c/B) e<a c>A A2 & x2 e<d|]

